X:13
T: GESTERN ABEND DA GIENG ICH WOL
N: E0627
O: Europa, Mitteleuropa, Deutschland, Westfalen, Paderborn
R: Liebes - Lied
M: 2/4
L: 1/16
K: F
CC | F4c3B | A4G2
G2 | F2E2F2A2 | G4z2
G2 | G2G2A2A2 | B4c3B | A4G4 |
F2E2F2A2 | G4c3B | A4G4 | F4z2

@@@ Tune index: 4326
